public/howtobacks.svg

<svg width="706" height="341" viewBox="0 0 706 341" fill="none" xmlns="http://www.w3.org/2000/svg">
<path d="M19.3131 306.669L5.8087 334.987C5.50053 335.633 5.9514 336.385 6.66662 336.417L27.4083 337.344C27.4779 337.348 27.5477 337.343 27.6164 337.332L51.5517 333.366C51.6205 333.355 51.6903 333.351 51.7599 333.354L118.717 336.349L185.778 330.849L302.018 336.349C309.469 336.349 325.624 335.749 330.631 333.349C335.6 330.967 343.328 332.328 346.65 333.326C346.702 333.342 346.753 333.353 346.807 333.36L368.978 336.335C369.046 336.345 369.114 336.347 369.182 336.342L411.105 333.349L537.993 336.347C538.047 336.348 538.102 336.345 538.155 336.338L559.408 333.367C559.492 333.355 559.577 333.354 559.661 333.364L585.364 336.337C585.431 336.345 585.499 336.346 585.566 336.34L619.443 333.349L676.538 336.342C676.625 336.347 676.711 336.34 676.796 336.322L690.707 333.405C690.882 333.369 691.045 333.285 691.177 333.164L700.486 324.646C700.693 324.457 700.811 324.189 700.811 323.909V309.571C700.811 309.425 700.779 309.281 700.717 309.148L695.539 298.05C695.478 297.918 695.446 297.773 695.446 297.627V280.349V267.112C695.446 266.94 695.49 266.77 695.575 266.62L700.551 257.809C700.714 257.521 700.724 257.172 700.578 256.876L691.143 237.692C691.035 237.471 691.012 237.218 691.078 236.981L695.409 221.481C695.433 221.394 695.446 221.303 695.446 221.212V202.849V170.612C695.446 170.44 695.49 170.27 695.575 170.12L700.563 161.288C700.719 161.012 700.734 160.678 700.605 160.389L695.615 149.228C695.507 148.985 695.499 148.71 695.594 148.462L700.735 135.047C700.785 134.917 700.807 134.777 700.8 134.638L695.459 31.0978C695.45 30.9345 695.482 30.7716 695.551 30.6235L700.564 19.8785C700.716 19.5515 700.681 19.1675 700.471 18.874L695.632 12.1101C695.511 11.9404 695.446 11.7369 695.446 11.5283V7.12381C695.446 6.66776 695.137 6.2695 694.696 6.15552L684.026 3.4017C683.891 3.36703 683.751 3.36069 683.614 3.38312L647.294 9.32745C647.206 9.34183 647.117 9.34442 647.028 9.33514L590.052 3.36133C589.975 3.35321 589.9 3.3537 589.823 3.36365C582.024 4.37125 565.229 6.65491 559.534 7.84912C553.864 9.03815 543.044 6.39819 538.207 4.89056C538.117 4.86246 538.027 4.84808 537.932 4.84601L469.309 3.35095C469.253 3.34973 469.197 3.35327 469.141 3.36151L438.824 7.84912L358.49 9.34653C358.397 9.34824 358.304 9.3371 358.215 9.31335L341.487 4.88245C341.403 4.86032 341.317 4.84912 341.231 4.84912H279.664C275.79 5.34912 267.504 6.34912 265.358 6.34912C263.259 6.34912 256.43 4.43658 253.063 3.4169C252.915 3.37201 252.76 3.36246 252.608 3.38806L226.113 7.83276C226.048 7.84363 225.982 7.84811 225.916 7.84607L80.2681 3.34912L37.467 6.34085C37.3884 6.34634 37.3095 6.34253 37.2318 6.3295L20.3916 3.50446C19.8711 3.41714 19.3723 3.74948 19.2523 4.26352L16.8343 14.6301C16.8006 14.7743 16.7354 14.9092 16.6433 15.0252L13.8272 18.5682C13.4842 18.9998 13.5552 19.6276 13.9859 19.9717L18.6085 23.6644C19.0685 24.0319 19.1131 24.7152 18.7047 25.1393L13.6014 30.4391C13.3566 30.6933 13.2639 31.0577 13.3576 31.398L16.7474 43.7189C16.7711 43.8053 16.7832 43.8945 16.7832 43.9842L16.7832 66.3491V74.7507C16.7832 74.8162 16.7896 74.8814 16.8024 74.9456L19.4368 88.2042C19.4559 88.3003 19.4608 88.3987 19.4513 88.4962L16.7832 115.849C15.591 122.516 13.2066 136.549 13.2066 139.349C13.2066 142.124 17.3034 160.836 19.4079 170.095C19.4466 170.265 19.4389 170.437 19.3879 170.604L13.277 190.618C13.2307 190.77 13.2211 190.93 13.249 191.087L19.4188 225.587C19.4495 225.759 19.4347 225.936 19.376 226.1L13.3096 243.061C13.2424 243.249 13.2329 243.452 13.2823 243.645L16.7324 257.151C16.7659 257.282 16.7725 257.418 16.7517 257.552L13.237 280.154C13.2169 280.283 13.2223 280.414 13.2529 280.541L19.3827 306.005C19.4364 306.227 19.4118 306.462 19.3131 306.669Z" fill="#48BBFE" fill-opacity="0.41"/>
<path d="M15.1122 37.3068L0.723031 9.12374C0.394805 8.48086 0.822149 7.72575 1.53625 7.6868L22.2458 6.55722C22.3154 6.55343 22.3853 6.55692 22.4544 6.56765L46.5101 10.2998C46.5793 10.3106 46.6492 10.3141 46.7187 10.3103L113.572 6.66385L180.795 11.5104L296.845 4.88012C304.295 4.80761 320.466 5.25032 325.548 7.60122C330.591 9.93419 338.275 8.49863 341.565 7.46828C341.616 7.45215 341.667 7.44071 341.72 7.43297L363.795 4.24219C363.863 4.23245 363.931 4.22965 363.999 4.23385L406.009 6.81812L532.784 2.58574C532.839 2.58393 532.893 2.58653 532.947 2.59352L554.289 5.35727C554.373 5.3682 554.459 5.36838 554.543 5.35781L580.148 2.13458C580.215 2.12613 580.283 2.12454 580.351 2.12985L614.315 4.79076L671.309 1.24244C671.395 1.23707 671.482 1.24293 671.567 1.25986L685.567 4.04109C685.744 4.07616 685.909 4.15781 686.045 4.27749L695.619 12.7036C695.831 12.8909 695.958 13.1572 695.966 13.4376L696.415 27.7736C696.42 27.9196 696.392 28.0641 696.335 28.197L691.505 39.3439C691.448 39.4768 691.42 39.6213 691.425 39.7672L691.966 57.0429L692.38 70.2782C692.386 70.4504 692.435 70.6192 692.525 70.7683L697.776 79.5305C697.947 79.8163 697.968 80.165 697.832 80.4625L688.999 99.7357C688.898 99.9573 688.882 100.21 688.956 100.446L693.772 115.902C693.799 115.989 693.814 116.08 693.817 116.171L694.392 134.531L695.401 166.763C695.406 166.935 695.456 167.104 695.545 167.253L700.809 176.036C700.973 176.31 700.999 176.644 700.879 176.934L696.239 188.142C696.138 188.386 696.139 188.661 696.242 188.908L701.802 202.271C701.856 202.401 701.883 202.54 701.88 202.68L699.78 306.256C699.777 306.419 699.814 306.581 699.887 306.729L705.236 317.424C705.399 317.749 705.375 318.133 705.174 318.428L700.548 325.239C700.432 325.409 700.373 325.613 700.38 325.822L700.518 330.226C700.532 330.682 700.236 331.083 699.798 331.201L689.216 334.058C689.083 334.094 688.943 334.102 688.805 334.081L652.304 328.491C652.216 328.478 652.126 328.476 652.038 328.486L595.258 335.013C595.181 335.022 595.106 335.022 595.029 335.013C587.199 334.082 570.336 331.962 564.604 330.823C558.898 329.689 548.162 332.434 543.373 333.989C543.284 334.018 543.194 334.033 543.099 334.036L474.534 336.199C474.478 336.2 474.421 336.197 474.365 336.19L443.912 331.998L363.543 331.282C363.45 331.282 363.358 331.294 363.269 331.318L346.683 335.911C346.6 335.934 346.514 335.946 346.428 335.947L284.871 336.546C280.981 336.084 272.665 335.165 270.52 335.186C268.421 335.206 261.653 337.185 258.318 338.237C258.171 338.283 258.017 338.294 257.864 338.27L231.234 334.084C231.169 334.074 231.103 334.07 231.037 334.073L85.5517 339.986L42.6636 337.411C42.5848 337.407 42.5059 337.411 42.4287 337.425L25.6798 340.414C25.1619 340.506 24.6527 340.179 24.5167 339.666L21.7744 329.324C21.7363 329.18 21.6669 329.046 21.5712 328.931L18.6443 325.416C18.2879 324.988 18.3393 324.36 18.759 324.012L23.2661 320.274C23.7144 319.902 23.7375 319.219 23.3161 318.799L18.0471 313.549C17.7945 313.297 17.6905 312.934 17.7734 312.593L20.7771 300.241C20.7982 300.154 20.8074 300.065 20.8046 299.975L20.1046 277.614L19.8416 269.213C19.8396 269.148 19.8439 269.083 19.8547 269.019L22.0738 255.736C22.0899 255.64 22.0916 255.542 22.0791 255.444L18.5552 228.121C17.1545 221.467 14.3312 207.46 14.2436 204.66C14.1568 201.886 17.6673 183.136 19.4817 173.858C19.515 173.688 19.5019 173.516 19.4458 173.35L12.7092 153.398C12.6582 153.247 12.6436 153.087 12.6666 152.93L17.7556 118.375C17.7809 118.203 17.7607 118.026 17.6968 117.863L11.1003 100.963C11.0273 100.776 11.0115 100.573 11.0547 100.379L14.0818 86.8424C14.1111 86.7112 14.1134 86.5747 14.0884 86.4414L9.86674 63.8768C9.84266 63.7481 9.84394 63.6165 9.8705 63.4893L15.2025 37.9701C15.2491 37.7468 15.2172 37.5127 15.1122 37.3068Z" fill="url(#paint0_linear_806_1687)" fill-opacity="0.41"/>
<path d="M690.548 298.96L704.608 326.371C704.938 327.014 704.51 327.771 703.795 327.81L683.553 328.91C683.483 328.913 683.414 328.91 683.345 328.899L659.794 325.266C659.725 325.255 659.656 325.251 659.586 325.255L594.125 328.813L528.302 324.096L414.664 330.564C407.369 330.636 391.535 330.205 386.56 327.915C381.623 325.643 374.099 327.042 370.877 328.046C370.825 328.062 370.775 328.073 370.722 328.081L349.109 331.191C349.041 331.2 348.973 331.203 348.905 331.199L307.772 328.685L183.634 332.817C183.58 332.819 183.526 332.817 183.473 332.81L162.579 330.119C162.495 330.108 162.41 330.108 162.326 330.119L137.257 333.26C137.19 333.269 137.122 333.27 137.055 333.265L103.799 330.675L47.8632 334.145L29.253 334.145C28.4505 334.145 27.9556 333.248 28.3918 332.584L30.3723 329.57C30.6439 329.157 30.5643 328.6 30.1857 328.266L24.1951 322.98C23.9828 322.793 23.8571 322.527 23.8483 322.247L23.4129 308.297C23.4083 308.15 23.436 308.005 23.4941 307.872L28.2205 297.023C28.2786 296.89 28.3064 296.745 28.3018 296.598L27.7766 279.774L27.3744 266.887C27.369 266.714 27.3188 266.545 27.2287 266.395L22.1008 257.879C21.9281 257.592 21.9072 257.242 22.0447 256.943L30.6871 238.19C30.7895 237.968 30.8052 237.713 30.731 237.476L26.024 222.434C25.9965 222.346 25.9812 222.255 25.9783 222.164L25.4201 204.281L24.4401 172.886C24.4347 172.713 24.3846 172.543 24.2945 172.394L19.1543 163.857C18.9885 163.582 18.9623 163.247 19.0837 162.955L23.6193 152.06C23.721 151.816 23.7199 151.539 23.6163 151.292L18.1826 138.29C18.1281 138.16 18.1014 138.02 18.1043 137.88L20.185 36.9837C20.1884 36.8197 20.1513 36.6566 20.0769 36.5087L14.8536 26.1117C14.6896 25.7852 14.7133 25.3995 14.9155 25.1033L19.4327 18.4891C19.5495 18.318 19.6089 18.1133 19.6024 17.904L19.4694 13.6435C19.4551 13.1873 19.7518 12.7859 20.1903 12.6681L30.5331 9.88898C30.6659 9.85329 30.8051 9.84568 30.9422 9.86652L66.6766 15.309C66.7645 15.3224 66.8536 15.3241 66.9414 15.3141L122.538 8.95091C122.615 8.94214 122.689 8.94187 122.766 8.95101C130.434 9.85808 146.943 11.9219 152.555 13.0307C158.141 14.1345 168.652 11.4606 173.343 9.94566C173.432 9.9169 173.521 9.90178 173.615 9.89882L240.751 7.78682C240.807 7.78506 240.863 7.78799 240.919 7.79562L270.736 11.8771L349.431 12.5681C349.523 12.5689 349.615 12.5569 349.703 12.5325L365.942 8.05771C366.024 8.03497 366.109 8.02303 366.195 8.02219L426.47 7.43387C430.279 7.88388 438.421 8.77881 440.522 8.7583C442.576 8.73825 449.2 6.81145 452.467 5.7857C452.613 5.73978 452.766 5.72877 452.919 5.75266L478.989 9.82826C479.054 9.83839 479.119 9.84218 479.184 9.83953L621.643 4.06724L663.636 6.57235C663.715 6.57705 663.793 6.5725 663.87 6.55884L680.252 3.64951C680.769 3.55765 681.277 3.88438 681.414 4.3962L684.089 14.4438C684.127 14.588 684.197 14.7225 684.294 14.8376L687.136 18.2356C687.495 18.6642 687.443 19.2948 687.021 19.6431L682.651 23.2485C682.2 23.6203 682.177 24.3064 682.601 24.7267L687.725 29.8076C687.979 30.0596 688.084 30.4244 688 30.7665L685.061 42.7809C685.04 42.8679 685.031 42.9576 685.033 43.0475L685.713 64.8294L685.969 73.0105C685.971 73.0762 685.966 73.1418 685.955 73.2064L683.78 86.1396C683.764 86.2363 683.762 86.3351 683.775 86.4329L687.218 113.048C688.588 119.53 691.35 133.178 691.435 135.905C691.519 138.607 688.079 156.865 686.3 165.907C686.266 166.078 686.279 166.25 686.336 166.417L692.922 185.841C692.974 185.993 692.988 186.154 692.965 186.31L687.976 219.962C687.95 220.134 687.971 220.312 688.035 220.476L694.484 236.924C694.558 237.112 694.574 237.316 694.53 237.511L691.566 250.684C691.536 250.816 691.534 250.953 691.559 251.087L695.685 273.058C695.71 273.188 695.708 273.32 695.681 273.448L690.458 298.294C690.41 298.519 690.443 298.754 690.548 298.96Z" fill="url(#paint1_linear_806_1687)" fill-opacity="0.41"/>
<defs>
<linearGradient id="paint0_linear_806_1687" x1="298.585" y1="5.00497" x2="349.48" y2="344.399" gradientUnits="userSpaceOnUse">
<stop stop-color="#48BBFE"/>
<stop offset="1" stop-color="#2B7098"/>
</linearGradient>
<linearGradient id="paint1_linear_806_1687" x1="345.5" y1="324.218" x2="361.597" y2="8.39726" gradientUnits="userSpaceOnUse">
<stop stop-color="#48FEEC"/>
<stop offset="1" stop-color="#1AFBFF"/>
</linearGradient>
</defs>
</svg>

<svg xmlns="http://www.w3.org/2000/svg" width="706" height="341" fill="none"><path fill="#48BBFE" fill-opacity=".41" d="M19.313 306.669 5.81 334.987a1 1 0 0 0 .858 1.43l20.741.927q.105.005.208-.012l23.936-3.966q.103-.017.208-.012l66.957 2.995 67.061-5.5 116.24 5.5c7.451 0 23.606-.6 28.613-3 4.969-2.382 12.697-1.021 16.019-.023a1 1 0 0 0 .157.034l22.171 2.975a1 1 0 0 0 .204.007l41.923-2.993 126.888 2.998q.082.001.162-.009l21.253-2.971a1 1 0 0 1 .253-.003l25.703 2.973a1 1 0 0 0 .202.003l33.877-2.991 57.095 2.993a1 1 0 0 0 .258-.02l13.911-2.917a1 1 0 0 0 .47-.241l9.309-8.518a1 1 0 0 0 .325-.737v-14.338a1 1 0 0 0-.094-.423l-5.178-11.098a1 1 0 0 1-.093-.423v-30.515c0-.172.044-.342.129-.492l4.976-8.811a1 1 0 0 0 .027-.933l-9.435-19.184a1 1 0 0 1-.065-.711l4.331-15.5q.037-.131.037-.269v-50.6c0-.172.044-.342.129-.492l4.988-8.832a1 1 0 0 0 .042-.899l-4.99-11.161a1 1 0 0 1-.021-.766l5.141-13.415c.05-.13.072-.27.065-.409l-5.341-103.54a1 1 0 0 1 .092-.474l5.013-10.745a1 1 0 0 0-.093-1.005l-4.839-6.764a1 1 0 0 1-.186-.582V7.124a1 1 0 0 0-.75-.968l-10.67-2.754a1 1 0 0 0-.412-.019l-36.32 5.944a1 1 0 0 1-.266.008l-56.976-5.974a1 1 0 0 0-.229.003c-7.799 1.007-24.594 3.29-30.289 4.485-5.67 1.19-16.49-1.45-21.327-2.958a1 1 0 0 0-.275-.045l-68.623-1.495a1 1 0 0 0-.168.01L438.824 7.85 358.49 9.347a1 1 0 0 1-.275-.034l-16.728-4.43a1 1 0 0 0-.256-.034h-61.567c-3.874.5-12.16 1.5-14.306 1.5-2.099 0-8.928-1.912-12.295-2.932a1 1 0 0 0-.455-.029l-26.495 4.445q-.098.015-.197.013L80.268 3.35 37.467 6.341a1 1 0 0 1-.235-.011l-16.84-2.826a1 1 0 0 0-1.14.76L16.834 14.63c-.033.144-.099.28-.19.395l-2.817 3.543a1 1 0 0 0 .159 1.404l4.622 3.692a1 1 0 0 1 .097 1.475l-5.104 5.3a1 1 0 0 0-.243.959l3.39 12.32q.035.13.035.266v30.767q0 .097.02.195l2.634 13.258a1 1 0 0 1 .014.292l-2.668 27.353c-1.192 6.667-3.576 20.7-3.576 23.5 0 2.775 4.096 21.487 6.2 30.746a1 1 0 0 1-.02.509l-6.11 20.014a1 1 0 0 0-.028.469l6.17 34.5c.03.172.016.349-.043.513l-6.066 16.961a1 1 0 0 0-.028.584l3.45 13.506q.05.198.02.401l-3.515 22.602a1 1 0 0 0 .016.387l6.13 25.464a1 1 0 0 1-.07.664"/><path fill="url(#a)" fill-opacity=".41" d="M15.112 37.307.723 9.124a.98.98 0 0 1 .813-1.437l20.71-1.13q.105-.005.208.01L46.51 10.3q.105.015.209.01l66.853-3.646 67.223 4.846 116.05-6.63c7.45-.072 23.621.37 28.703 2.721 5.043 2.333 12.727.898 16.017-.133a1 1 0 0 1 .155-.035l22.075-3.19a1 1 0 0 1 .204-.01l42.01 2.585 126.775-4.232q.082-.003.163.008l21.342 2.763q.127.017.254 0l25.605-3.222a1 1 0 0 1 .203-.005l33.964 2.66 56.994-3.548q.13-.008.258.018l14 2.781c.177.035.342.117.478.236l9.574 8.427c.212.187.339.453.347.734l.449 14.336a1 1 0 0 1-.08.423l-4.83 11.147a1 1 0 0 0-.08.423l.541 17.276.414 13.235c.006.172.055.341.145.49l5.251 8.763c.171.285.192.634.056.931l-8.833 19.274a1 1 0 0 0-.043.71l4.816 15.456q.04.132.045.269l.575 18.36 1.009 32.232c.005.172.055.341.144.49l5.264 8.783c.164.274.19.608.07.898l-4.64 11.208a1 1 0 0 0 .003.766l5.56 13.363c.054.13.081.269.078.409l-2.1 103.576c-.003.163.034.325.107.473l5.349 10.695a.99.99 0 0 1-.062 1.004l-4.626 6.811a.98.98 0 0 0-.168.583l.138 4.404a.97.97 0 0 1-.72.975l-10.582 2.857a1 1 0 0 1-.411.023l-36.501-5.59a1 1 0 0 0-.266-.005l-56.78 6.527a1 1 0 0 1-.229 0c-7.83-.931-24.693-3.051-30.425-4.19-5.706-1.134-16.442 1.611-21.231 3.166a1 1 0 0 1-.274.047l-68.565 2.163a1 1 0 0 1-.169-.009l-30.453-4.192-80.369-.716q-.14 0-.274.036l-16.586 4.593a1 1 0 0 1-.255.036l-61.557.599c-3.89-.462-12.206-1.381-14.351-1.36-2.099.02-8.867 1.999-12.202 3.051a1 1 0 0 1-.454.033l-26.63-4.186a1 1 0 0 0-.197-.011l-145.485 5.913-42.888-2.575q-.12-.007-.235.014l-16.75 2.989a1.025 1.025 0 0 1-1.162-.748l-2.743-10.342a1 1 0 0 0-.203-.393l-2.927-3.515a.994.994 0 0 1 .115-1.404l4.507-3.738a.997.997 0 0 0 .05-1.475l-5.269-5.25a1.01 1.01 0 0 1-.274-.956l3.004-12.352a1 1 0 0 0 .028-.266l-.7-22.361-.263-8.401a1 1 0 0 1 .013-.194l2.219-13.283a1 1 0 0 0 .005-.292l-3.524-27.323c-1.4-6.654-4.224-20.661-4.311-23.461-.087-2.774 3.423-21.524 5.238-30.802a1 1 0 0 0-.036-.508l-6.737-19.952a1 1 0 0 1-.042-.468l5.089-34.555a1 1 0 0 0-.06-.512l-6.596-16.9a1 1 0 0 1-.045-.584l3.027-13.537a1 1 0 0 0 .006-.4L9.867 63.876a1 1 0 0 1 .003-.388l5.333-25.519a1 1 0 0 0-.09-.663"/><path fill="url(#b)" fill-opacity=".41" d="m690.548 298.96 14.06 27.411a.98.98 0 0 1-.813 1.439l-20.242 1.1q-.105.005-.208-.011l-23.551-3.633q-.103-.017-.208-.011l-65.461 3.558-65.823-4.717-113.638 6.468c-7.295.072-23.129-.359-28.104-2.649-4.937-2.272-12.461-.873-15.683.131a1 1 0 0 1-.155.035l-21.613 3.11a1 1 0 0 1-.204.008l-41.133-2.514-124.138 4.132a1 1 0 0 1-.161-.007l-20.894-2.691a1 1 0 0 0-.253 0l-25.069 3.141a1 1 0 0 1-.202.005l-33.256-2.59-55.936 3.47h-18.61c-.802 0-1.297-.897-.861-1.561l1.98-3.014c.272-.413.192-.97-.186-1.304l-5.99-5.286a1.02 1.02 0 0 1-.348-.733l-.435-13.95a1 1 0 0 1 .081-.425l4.727-10.849a1 1 0 0 0 .08-.425l-.524-16.824-.403-12.887a1 1 0 0 0-.145-.492l-5.128-8.516a1 1 0 0 1-.056-.936l8.642-18.753a1 1 0 0 0 .044-.714l-4.707-15.042a1 1 0 0 1-.046-.27l-.558-17.883-.98-31.395a1 1 0 0 0-.146-.492l-5.14-8.537a1 1 0 0 1-.07-.902l4.535-10.895a1 1 0 0 0-.003-.768l-5.433-13.002a1 1 0 0 1-.079-.41l2.081-100.896a1 1 0 0 0-.108-.475l-5.223-10.397a1 1 0 0 1 .062-1.009l4.517-6.614a1 1 0 0 0 .17-.585l-.134-4.26a.97.97 0 0 1 .721-.976L30.533 9.89a1 1 0 0 1 .41-.022l35.734 5.442q.132.02.264.005l55.597-6.363a1 1 0 0 1 .228 0c7.668.907 24.177 2.97 29.789 4.08 5.586 1.103 16.097-1.57 20.788-3.085a1 1 0 0 1 .272-.047l67.136-2.112q.084-.003.168.009l29.817 4.081 78.695.691a1 1 0 0 0 .272-.035l16.239-4.475a1 1 0 0 1 .253-.036l60.275-.588c3.809.45 11.951 1.345 14.052 1.324 2.054-.02 8.678-1.947 11.945-2.972a1 1 0 0 1 .452-.033l26.07 4.075a1 1 0 0 0 .195.012l142.459-5.773 41.993 2.505q.119.007.234-.013l16.382-2.91a1.025 1.025 0 0 1 1.162.747l2.675 10.048q.058.218.205.394l2.842 3.398a.994.994 0 0 1-.115 1.407l-4.37 3.605a.997.997 0 0 0-.05 1.479l5.124 5.08c.254.253.359.617.275.96l-2.939 12.014q-.031.131-.028.267l.68 21.781.256 8.182a1 1 0 0 1-.014.195L683.78 86.14a1 1 0 0 0-.005.293l3.443 26.615c1.37 6.482 4.132 20.13 4.217 22.857.084 2.702-3.356 20.96-5.135 30.002a1 1 0 0 0 .036.51l6.586 19.424a1 1 0 0 1 .043.469l-4.989 33.652c-.026.172-.005.35.059.514l6.449 16.448a1 1 0 0 1 .046.587l-2.964 13.173a1 1 0 0 0-.007.403l4.126 21.971a1 1 0 0 1-.004.39l-5.223 24.846c-.048.225-.015.46.09.666"/><defs><linearGradient id="a" x1="298.585" x2="349.48" y1="5.005" y2="344.399" gradientUnits="userSpaceOnUse"><stop stop-color="#48BBFE"/><stop offset="1" stop-color="#2B7098"/></linearGradient><linearGradient id="b" x1="345.5" x2="361.597" y1="324.218" y2="8.397" gradientUnits="userSpaceOnUse"><stop stop-color="#48FEEC"/><stop offset="1" stop-color="#1AFBFF"/></linearGradient></defs></svg>
